X:1
T:The Miller and the Lass
M:2/4
L:1/8
K:D
 A| F/2G/2 F/2E/2 DE| FE D2| dd e3/2 d/2| cB AA| dd e3/2 A/2| dd e3/2 e/2|\
 fd dB| AG F2| D/2E/2 F D/2E/2 F| D/2E/2 F/2G/2 A2| FA d3/2 G/2| F/2G/2 F/2E/2 D/2 z/2||\
